X: 463
T:Port Liadroma
T:Old Tipperary
T:The Jolly Banger
R:Jig
Z:Gerry Strong
M:6/8
L:1/8
N:Posted to the woodenflute mailing list November 2001
K:G
d|:cAF ~G3|ABA ~G3|cAG GFG|ADE FGd|cAF ~G3|
ABA GBd| fdd edd|1fdd cAd:|2fdd cAF|
|:GBd ~g3|gaf ~g3|dgg dgg|a2 g fga|bag agf|
gfe f2 e|dcA d2 e|1fed cAF:|2fed cAd||"Last Time"fed cAF|G3||

